assets/icons/24px/stroke/house-24px.svg

<svg width="24" height="24" viewBox="0 0 24 24" fill="none" xmlns="http://www.w3.org/2000/svg">
<path fill-rule="evenodd" clip-rule="evenodd" d="M5 10V17C5 17.9711 5.00213 18.5988 5.06431 19.0613C5.12263 19.495 5.21677 19.631 5.2929 19.7071C5.36902 19.7832 5.50497 19.8774 5.93871 19.9357C6.40122 19.9979 7.02893 20 8 20H16C16.9711 20 17.5988 19.9979 18.0613 19.9357C18.495 19.8774 18.631 19.7832 18.7071 19.7071C18.7832 19.631 18.8774 19.495 18.9357 19.0613C18.9979 18.5988 19 17.9711 19 17V10H21L21 17.0658C21.0001 17.9523 21.0001 18.7161 20.9179 19.3278C20.8297 19.9833 20.631 20.6117 20.1213 21.1213C19.6117 21.631 18.9833 21.8297 18.3278 21.9179C17.7161 22.0001 16.9523 22.0001 16.0658 22H7.93417C7.04769 22.0001 6.28387 22.0001 5.67221 21.9179C5.0167 21.8297 4.38835 21.631 3.87868 21.1213C3.36902 20.6117 3.17028 19.9833 3.08215 19.3278C2.99991 18.7161 2.99995 17.9523 3 17.0658L3 10H5Z" fill="white"/>
<path fill-rule="evenodd" clip-rule="evenodd" d="M11.3817 4.12339C11.0107 4.40646 10.5653 4.84882 9.87868 5.53547L3.70711 11.707C3.31658 12.0976 2.68342 12.0976 2.29289 11.707C1.90237 11.3165 1.90237 10.6834 2.29289 10.2928L8.46447 4.12126C8.48004 4.10569 8.49555 4.09018 8.51101 4.07472C9.13782 3.44784 9.67789 2.90771 10.1685 2.53335C10.6944 2.13215 11.2792 1.82837 12 1.82837C12.7208 1.82837 13.3056 2.13215 13.8315 2.53335C14.3221 2.90771 14.8622 3.44784 15.489 4.07471L21.7071 10.2928C22.0976 10.6834 22.0976 11.3165 21.7071 11.707C21.3166 12.0976 20.6834 12.0976 20.2929 11.707L14.1213 5.53548C13.4347 4.84882 12.9893 4.40646 12.6183 4.12339C12.2704 3.85793 12.1077 3.82837 12 3.82837C11.8923 3.82837 11.7296 3.85793 11.3817 4.12339Z" fill="white"/>
<path d="M9 17C9 16.0681 9 15.6022 9.15224 15.2346C9.35523 14.7446 9.74458 14.3552 10.2346 14.1522C10.6022 14 11.0681 14 12 14V14C12.9319 14 13.3978 14 13.7654 14.1522C14.2554 14.3552 14.6448 14.7446 14.8478 15.2346C15 15.6022 15 16.0681 15 17V21H9V17Z" fill="white"/>
<path d="M16 4.5C16 4.03406 16 3.80109 16.0761 3.61732C16.1776 3.37229 16.3723 3.17761 16.6173 3.07612C16.8011 3 17.0341 3 17.5 3Lnan nanLnan nanL17.5 3C17.9659 3 18.1989 3 18.3827 3.07612C18.6277 3.17761 18.8224 3.37229 18.9239 3.61732C19 3.80109 19 4.03406 19 4.5V10L16 6.5V4.5Z" fill="white"/>
</svg>

<svg width="24" height="24" fill="none" xmlns="http://www.w3.org/2000/svg"><path fill-rule="evenodd" clip-rule="evenodd" d="M5 10v7c0 .971.002 1.599.064 2.061.059.434.153.57.229.646.076.076.212.17.646.229C6.4 19.998 7.029 20 8 20h8c.971 0 1.599-.002 2.061-.064.434-.059.57-.153.646-.229.076-.076.17-.212.229-.646.062-.462.064-1.09.064-2.061v-7h2v7.066c0 .886 0 1.65-.082 2.262-.088.655-.287 1.284-.797 1.793-.51.51-1.138.709-1.793.797-.612.082-1.376.082-2.262.082H7.934c-.886 0-1.65 0-2.262-.082-.655-.088-1.284-.287-1.793-.797-.51-.51-.709-1.138-.797-1.793C3 18.716 3 17.952 3 17.066V10h2z" fill="#fff"/><path fill-rule="evenodd" clip-rule="evenodd" d="M11.382 4.123c-.371.283-.817.726-1.503 1.412l-6.172 6.172a1 1 0 1 1-1.414-1.414L8.464 4.12l.047-.046c.627-.627 1.167-1.167 1.658-1.542.525-.4 1.11-.705 1.831-.705.72 0 1.306.304 1.832.705.49.375 1.03.915 1.657 1.542l6.218 6.218a1 1 0 0 1-1.414 1.414L14.12 5.535c-.686-.686-1.132-1.129-1.503-1.412-.348-.265-.51-.295-.618-.295-.108 0-.27.03-.618.295z" fill="#fff"/><path d="M9 17c0-.932 0-1.398.152-1.765a2 2 0 0 1 1.083-1.083C10.602 14 11.068 14 12 14c.932 0 1.398 0 1.765.152a2 2 0 0 1 1.083 1.083C15 15.602 15 16.068 15 17v4H9v-4zm7-12.5c0-.466 0-.699.076-.883a1 1 0 0 1 .541-.54C16.801 3 17.034 3 17.5 3s.699 0 .883.076a1 1 0 0 1 .54.541c.077.184.077.417.077.883V10l-3-3.5v-2z" fill="#fff"/></svg>
